styles/1/Numix-Circle/48x48/apps/gnome-encfs-manager.svg

<?xml version="1.0" encoding="UTF-8" standalone="no"?>
<svg
   xmlns:dc="http://purl.org/dc/elements/1.1/"
   xmlns:cc="http://creativecommons.org/ns#"
   xmlns:rdf="http://www.w3.org/1999/02/22-rdf-syntax-ns#"
   xmlns:svg="http://www.w3.org/2000/svg"
   xmlns="http://www.w3.org/2000/svg"
   xmlns:sodipodi="http://sodipodi.sourceforge.net/DTD/sodipodi-0.dtd"
   xmlns:inkscape="http://www.inkscape.org/namespaces/inkscape"
   viewBox="0 0 48 48"
   id="svg4119"
   version="1.1"
   inkscape:version="0.91 r"
   width="100%"
   height="100%"
   sodipodi:docname="gnome-encfs-manager.svg">
  <metadata
     id="metadata4186">
    <rdf:RDF>
      <cc:Work
         rdf:about="">
        <dc:format>image/svg+xml</dc:format>
        <dc:type
           rdf:resource="http://purl.org/dc/dcmitype/StillImage" />
      </cc:Work>
    </rdf:RDF>
  </metadata>
  <sodipodi:namedview
     pagecolor="#ffffff"
     bordercolor="#666666"
     borderopacity="1"
     objecttolerance="10"
     gridtolerance="10"
     guidetolerance="10"
     inkscape:pageopacity="0"
     inkscape:pageshadow="2"
     inkscape:window-width="1280"
     inkscape:window-height="998"
     id="namedview4184"
     showgrid="false"
     inkscape:zoom="3.4766083"
     inkscape:cx="-41.032503"
     inkscape:cy="29.051082"
     inkscape:window-x="0"
     inkscape:window-y="0"
     inkscape:window-maximized="1"
     inkscape:current-layer="svg4119" />
  <defs
     id="defs4121">
    <linearGradient
       id="linearGradient3764"
       x1="1"
       x2="47"
       gradientUnits="userSpaceOnUse"
       gradientTransform="matrix(0,-1,1,0,-1.5e-6,47.999998)">
      <stop
         stop-color="#3d3d3d"
         stop-opacity="1"
         id="stop4124" />
      <stop
         offset="1"
         stop-color="#474747"
         stop-opacity="1"
         id="stop4126" />
    </linearGradient>
  </defs>
  <g
     id="g4138">
    <path
       d="m 36.31 5 c 5.859 4.062 9.688 10.831 9.688 18.5 c 0 12.426 -10.07 22.5 -22.5 22.5 c -7.669 0 -14.438 -3.828 -18.5 -9.688 c 1.037 1.822 2.306 3.499 3.781 4.969 c 4.085 3.712 9.514 5.969 15.469 5.969 c 12.703 0 23 -10.298 23 -23 c 0 -5.954 -2.256 -11.384 -5.969 -15.469 c -1.469 -1.475 -3.147 -2.744 -4.969 -3.781 z m 4.969 3.781 c 3.854 4.113 6.219 9.637 6.219 15.719 c 0 12.703 -10.297 23 -23 23 c -6.081 0 -11.606 -2.364 -15.719 -6.219 c 4.16 4.144 9.883 6.719 16.219 6.719 c 12.703 0 23 -10.298 23 -23 c 0 -6.335 -2.575 -12.06 -6.719 -16.219 z"
       opacity="0.05"
       id="path4140" />
    <path
       d="m 41.28 8.781 c 3.712 4.085 5.969 9.514 5.969 15.469 c 0 12.703 -10.297 23 -23 23 c -5.954 0 -11.384 -2.256 -15.469 -5.969 c 4.113 3.854 9.637 6.219 15.719 6.219 c 12.703 0 23 -10.298 23 -23 c 0 -6.081 -2.364 -11.606 -6.219 -15.719 z"
       opacity="0.1"
       id="path4142" />
    <path
       d="m 31.25 2.375 c 8.615 3.154 14.75 11.417 14.75 21.13 c 0 12.426 -10.07 22.5 -22.5 22.5 c -9.708 0 -17.971 -6.135 -21.12 -14.75 a 23 23 0 0 0 44.875 -7 a 23 23 0 0 0 -16 -21.875 z"
       opacity="0.2"
       id="path4144" />
  </g>
  <g
     id="g4146">
    <path
       d="m 24 1 c 12.703 0 23 10.297 23 23 c 0 12.703 -10.297 23 -23 23 -12.703 0 -23 -10.297 -23 -23 0 -12.703 10.297 -23 23 -23 z"
       fill="url(#linearGradient3764)"
       fill-opacity="1"
       id="path4148" />
  </g>
  <g
     id="g4150" />
  <path
     style="opacity:0.1;fill:#000000;fill-opacity:1;fill-rule:nonzero;stroke:none"
     d="M 13.8125 16 C 13.371574 16.05099 12.997 16.464595 13 16.9375 L 13 34.03125 C 13.000058 34.53115 13.434329 35 13.90625 35 L 36 35 C 36.472925 35 37 34.4999 37 34 L 37 19 C 37 18.5001 36.472925 18 36 18 L 27 18 L 27 17 C 26.9987 16.35213 26.550909 16 26 16 L 13.8125 16 z M 27.78125 21 C 29.55525 21 30.992 22.4145 31 24.1875 L 31 24.21875 C 31 25.99575 29.55825 27.4375 27.78125 27.4375 C 27.22725 27.4375 26.707 27.28125 26.25 27.03125 L 24.5625 28.71875 L 24.5625 29.5625 L 23.71875 29.5625 L 23.28125 30 L 23.28125 30.84375 L 22.84375 31.28125 L 22 31.28125 L 21.5625 31.71875 L 20.71875 31.71875 L 20.71875 32.5625 L 20.28125 33 L 19 33 L 19 31.71875 L 24.96875 25.75 C 24.71875 25.293 24.5625 24.77775 24.5625 24.21875 C 24.5625 22.44575 26.00425 21 27.78125 21 z M 28.4375 22.71875 C 27.9615 22.71875 27.5625 23.0895 27.5625 23.5625 C 27.5625 24.0385 27.9605 24.4375 28.4375 24.4375 C 28.9095 24.4375 29.28125 24.0395 29.28125 23.5625 C 29.27825 23.0905 28.9065 22.71875 28.4375 22.71875 z "
     id="path45" />
  <g
     id="g4180">
    <path
       d="m 40.03 7.531 c 3.712 4.084 5.969 9.514 5.969 15.469 0 12.703 -10.297 23 -23 23 c -5.954 0 -11.384 -2.256 -15.469 -5.969 4.178 4.291 10.01 6.969 16.469 6.969 c 12.703 0 23 -10.298 23 -23 0 -6.462 -2.677 -12.291 -6.969 -16.469 z"
       opacity="0.1"
       id="path4182" />
  </g>
  <path
     style="fill:#ececec;fill-opacity:1;fill-rule:nonzero;stroke:none"
     d="M 12.8125 15 C 12.371574 15.05096 11.997 15.496148 12 15.96875 L 12 33.03125 C 12.000058 33.53083 12.434329 34 12.90625 34 L 35 34 C 35.472922 34 36 33.499579 36 33 L 36 18.03125 C 36 17.531671 35.472922 17.03125 35 17.03125 L 26 17.03125 L 26 16 C 25.9987 15.352546 25.550907 15 25 15 L 12.8125 15 z M 26.78125 20 C 28.55525 20 29.992 21.4145 30 23.1875 L 30 23.21875 C 30 24.99575 28.55825 26.4375 26.78125 26.4375 C 26.22725 26.4375 25.707 26.28125 25.25 26.03125 L 23.5625 27.71875 L 23.5625 28.5625 L 22.71875 28.5625 L 22.28125 29 L 22.28125 29.84375 L 21.875 30.28125 L 21 30.28125 L 20.5625 30.71875 L 19.71875 30.71875 L 19.71875 31.5625 L 19.28125 32 L 18 32 L 18 30.71875 L 23.96875 24.75 C 23.71875 24.293 23.5625 23.77775 23.5625 23.21875 C 23.5625 21.44575 25.00425 20 26.78125 20 z M 27.4375 21.71875 C 26.9615 21.71875 26.5625 22.0895 26.5625 22.5625 C 26.5625 23.0385 26.9605 23.4375 27.4375 23.4375 C 27.9095 23.4375 28.28125 23.0395 28.28125 22.5625 C 28.27825 22.0905 27.9065 21.71875 27.4375 21.71875 z "
     id="path55" />
</svg>

<svg xmlns="http://www.w3.org/2000/svg" viewBox="0 0 48 48">
 <defs>
  <linearGradient id="linearGradient3764" x1="1" x2="47" gradientUnits="userSpaceOnUse" gradientTransform="matrix(0,-1,1,0,-1.5e-6,47.999998)">
   <stop style="stop-color:#3d3d3d;stop-opacity:1"/>
   <stop offset="1" style="stop-color:#474747;stop-opacity:1"/>
  </linearGradient>
 </defs>
 <g>
  <path d="m 36.31 5 c 5.859 4.062 9.688 10.831 9.688 18.5 c 0 12.426 -10.07 22.5 -22.5 22.5 c -7.669 0 -14.438 -3.828 -18.5 -9.688 c 1.037 1.822 2.306 3.499 3.781 4.969 c 4.085 3.712 9.514 5.969 15.469 5.969 c 12.703 0 23 -10.298 23 -23 c 0 -5.954 -2.256 -11.384 -5.969 -15.469 c -1.469 -1.475 -3.147 -2.744 -4.969 -3.781 z m 4.969 3.781 c 3.854 4.113 6.219 9.637 6.219 15.719 c 0 12.703 -10.297 23 -23 23 c -6.081 0 -11.606 -2.364 -15.719 -6.219 c 4.16 4.144 9.883 6.719 16.219 6.719 c 12.703 0 23 -10.298 23 -23 c 0 -6.335 -2.575 -12.06 -6.719 -16.219 z" style="opacity:0.05"/>
  <path d="m 41.28 8.781 c 3.712 4.085 5.969 9.514 5.969 15.469 c 0 12.703 -10.297 23 -23 23 c -5.954 0 -11.384 -2.256 -15.469 -5.969 c 4.113 3.854 9.637 6.219 15.719 6.219 c 12.703 0 23 -10.298 23 -23 c 0 -6.081 -2.364 -11.606 -6.219 -15.719 z" style="opacity:0.1"/>
  <path d="m 31.25 2.375 c 8.615 3.154 14.75 11.417 14.75 21.13 c 0 12.426 -10.07 22.5 -22.5 22.5 c -9.708 0 -17.971 -6.135 -21.12 -14.75 a 23 23 0 0 0 44.875 -7 a 23 23 0 0 0 -16 -21.875 z" style="opacity:0.2"/>
 </g>
 <g>
  <path d="m 24 1 c 12.703 0 23 10.297 23 23 c 0 12.703 -10.297 23 -23 23 -12.703 0 -23 -10.297 -23 -23 0 -12.703 10.297 -23 23 -23 z" style="fill:url(#linearGradient3764);fill-opacity:1"/>
 </g>
 <path d="m 13.813 16 c -0.441 0.051 -0.816 0.465 -0.813 0.938 l 0 17.09 c 0 0.5 0.434 0.969 0.906 0.969 l 22.09 0 c 0.473 0 1 -0.5 1 -1 l 0 -15 c 0 -0.5 -0.527 -1 -1 -1 l -9 0 l 0 -1 c 0 -0.648 -0.449 -1 -1 -1 l -12.188 0 z m 13.969 5 c 1.774 0 3.211 1.415 3.219 3.188 l 0 0.031 c 0 1.777 -1.442 3.219 -3.219 3.219 c -0.554 0 -1.074 -0.156 -1.531 -0.406 l -1.688 1.688 l 0 0.844 l -0.844 0 l -0.438 0.438 l 0 0.844 l -0.438 0.438 l -0.844 0 l -0.438 0.438 l -0.844 0 l 0 0.844 l -0.438 0.438 l -1.281 0 l 0 -1.281 l 5.969 -5.969 c -0.25 -0.457 -0.406 -0.972 -0.406 -1.531 c 0 -1.773 1.442 -3.219 3.219 -3.219 z m 0.656 1.719 c -0.476 0 -0.875 0.371 -0.875 0.844 c 0 0.476 0.398 0.875 0.875 0.875 c 0.472 0 0.844 -0.398 0.844 -0.875 c -0.003 -0.472 -0.375 -0.844 -0.844 -0.844 z" style="fill:#000;opacity:0.1;fill-opacity:1;stroke:none;fill-rule:nonzero"/>
 <g>
  <path d="m 40.03 7.531 c 3.712 4.084 5.969 9.514 5.969 15.469 0 12.703 -10.297 23 -23 23 c -5.954 0 -11.384 -2.256 -15.469 -5.969 4.178 4.291 10.01 6.969 16.469 6.969 c 12.703 0 23 -10.298 23 -23 0 -6.462 -2.677 -12.291 -6.969 -16.469 z" style="opacity:0.1"/>
 </g>
 <path d="m 12.813 15 c -0.441 0.051 -0.816 0.496 -0.813 0.969 l 0 17.06 c 0 0.5 0.434 0.969 0.906 0.969 l 22.09 0 c 0.473 0 1 -0.5 1 -1 l 0 -14.969 c 0 -0.5 -0.527 -1 -1 -1 l -9 0 l 0 -1.031 c 0 -0.647 -0.449 -1 -1 -1 l -12.188 0 z m 13.969 5 c 1.774 0 3.211 1.415 3.219 3.188 l 0 0.031 c 0 1.777 -1.442 3.219 -3.219 3.219 c -0.554 0 -1.074 -0.156 -1.531 -0.406 l -1.688 1.688 l 0 0.844 l -0.844 0 l -0.438 0.438 l 0 0.844 l -0.406 0.438 l -0.875 0 l -0.438 0.438 l -0.844 0 l 0 0.844 l -0.438 0.438 l -1.281 0 l 0 -1.281 l 5.969 -5.969 c -0.25 -0.457 -0.406 -0.972 -0.406 -1.531 c 0 -1.773 1.442 -3.219 3.219 -3.219 z m 0.656 1.719 c -0.476 0 -0.875 0.371 -0.875 0.844 c 0 0.476 0.398 0.875 0.875 0.875 c 0.472 0 0.844 -0.398 0.844 -0.875 c -0.003 -0.472 -0.375 -0.844 -0.844 -0.844 z" style="fill:#ececec;fill-opacity:1;stroke:none;fill-rule:nonzero"/>
</svg>
